X: 1390
T: The Wexford Lasses
M:C|
L:1/8
N:"collected by McFadden"
B:O'Neill's 1390
Z:"Transcribed by Bob Safranek, rjs@gsp.org"
K:D
((3AB"Segno"c)|TdcdA ((3Bcd) AF | DFAg fdec| TdBdA BdAF| GBAG FDDA |
              {e}dcdA ((3Bcd) AF | DFAg fdec|  defd cdec| dBAG FD "   Fine"D ||
g  | fdde fgaf | gfga bgeg | fdde fgaf       | gbag fddg |
     fdde fgaf | gfga bgeg | fgaf ((3gag) bg | faeg fde"Segno"c |]


